posts/RAID-10-VS-RAID-01/RAID-01-BAD.svg

<svg xmlns="http://www.w3.org/2000/svg" xmlns:xlink="http://www.w3.org/1999/xlink" width="782" height="380" viewBox="-0.5 -0.5 782 380" style="background-color:#fff"><path fill="#FFF" stroke="#b3b3b3" stroke-width="2" stroke-dasharray="6 6" pointer-events="all" d="M10 90h360v200H10z"/><path d="M30 140c0-16.57 17.91-30 40-30 10.61 0 20.78 3.16 28.28 8.79C105.79 124.41 110 132.04 110 140v100c0 16.57-17.91 30-40 30s-40-13.43-40-30Z" fill="#f33" stroke="#000" stroke-width="2" stroke-miterlimit="10" pointer-events="all"/><path d="M110 140c0 16.57-17.91 30-40 30s-40-13.43-40-30" fill="none" stroke="#000" stroke-width="2" stroke-miterlimit="10" pointer-events="all"/><path d="M150 140c0-16.57 17.91-30 40-30 10.61 0 20.78 3.16 28.28 8.79C225.79 124.41 230 132.04 230 140v100c0 16.57-17.91 30-40 30s-40-13.43-40-30Z" fill="#ccc" stroke="#000" stroke-width="2" stroke-miterlimit="10" pointer-events="all"/><path d="M230 140c0 16.57-17.91 30-40 30s-40-13.43-40-30" fill="none" stroke="#000" stroke-width="2" stroke-miterlimit="10" pointer-events="all"/><path d="M270 140c0-16.57 17.91-30 40-30 10.61 0 20.78 3.16 28.28 8.79C345.79 124.41 350 132.04 350 140v100c0 16.57-17.91 30-40 30s-40-13.43-40-30Z" fill="#ccc" stroke="#000" stroke-width="2" stroke-miterlimit="10" pointer-events="all"/><path d="M350 140c0 16.57-17.91 30-40 30s-40-13.43-40-30" fill="none" stroke="#000" stroke-width="2" stroke-miterlimit="10" pointer-events="all"/><path fill="#FFF" stroke="#b3b3b3" stroke-width="2" stroke-dasharray="6 6" pointer-events="all" d="M410 90h360v200H410z"/><path d="M430 140c0-16.57 17.91-30 40-30 10.61 0 20.78 3.16 28.28 8.79C505.79 124.41 510 132.04 510 140v100c0 16.57-17.91 30-40 30s-40-13.43-40-30Z" fill="#9f3" stroke="#000" stroke-width="2" stroke-miterlimit="10" pointer-events="all"/><path d="M510 140c0 16.57-17.91 30-40 30s-40-13.43-40-30" fill="none" stroke="#000" stroke-width="2" stroke-miterlimit="10" pointer-events="all"/><path d="M550 140c0-16.57 17.91-30 40-30 10.61 0 20.78 3.16 28.28 8.79C625.79 124.41 630 132.04 630 140v100c0 16.57-17.91 30-40 30s-40-13.43-40-30Z" fill="#9f3" stroke="#000" stroke-width="2" stroke-miterlimit="10" pointer-events="all"/><path d="M630 140c0 16.57-17.91 30-40 30s-40-13.43-40-30" fill="none" stroke="#000" stroke-width="2" stroke-miterlimit="10" pointer-events="all"/><path d="M670 140c0-16.57 17.91-30 40-30 10.61 0 20.78 3.16 28.28 8.79C745.79 124.41 750 132.04 750 140v100c0 16.57-17.91 30-40 30s-40-13.43-40-30Z" fill="#9f3" stroke="#000" stroke-width="2" stroke-miterlimit="10" pointer-events="all"/><path d="M750 140c0 16.57-17.91 30-40 30s-40-13.43-40-30" fill="none" stroke="#000" stroke-width="2" stroke-miterlimit="10" pointer-events="all"/><path d="M190.06 330v-40 20-40" fill="none" stroke="#000" stroke-width="2" stroke-miterlimit="10" pointer-events="stroke"/><path fill="none" pointer-events="all" d="M130 330h120v40H130z"/><switch transform="matrix(2 0 0 2 -.5 -.5)"><foreignObject pointer-events="none" width="100%" height="100%" requiredFeatures="http://www.w3.org/TR/SVG11/feature#Extensibility" style="overflow:visible;text-align:left"><div xmlns="http://www.w3.org/1999/xhtml" style="display:flex;align-items:unsafe center;justify-content:unsafe center;width:58px;height:1px;padding-top:175px;margin-left:66px"><div data-drawio-colors="color: rgb(0, 0, 0);" style="box-sizing:border-box;font-size:0;text-align:center"><div style="display:inline-block;font-size:12px;font-family:Helvetica;color:#000;line-height:1.2;pointer-events:all;white-space:normal;overflow-wrap:normal">RAID 0</div></div></div></foreignObject><text x="95" y="179" font-family="Helvetica" font-size="12" text-anchor="middle">RAID 0</text></switch><path d="M590.06 330v-40 20-40M590.06 330v-20h120v-40" fill="none" stroke="#000" stroke-width="2" stroke-miterlimit="10" pointer-events="stroke"/><path fill="none" pointer-events="all" d="M530 330h120v40H530z"/><switch transform="matrix(2 0 0 2 -.5 -.5)"><foreignObject pointer-events="none" width="100%" height="100%" requiredFeatures="http://www.w3.org/TR/SVG11/feature#Extensibility" style="overflow:visible;text-align:left"><div xmlns="http://www.w3.org/1999/xhtml" style="display:flex;align-items:unsafe center;justify-content:unsafe center;width:58px;height:1px;padding-top:175px;margin-left:266px"><div data-drawio-colors="color: rgb(0, 0, 0);" style="box-sizing:border-box;font-size:0;text-align:center"><div style="display:inline-block;font-size:12px;font-family:Helvetica;color:#000;line-height:1.2;pointer-events:all;white-space:normal;overflow-wrap:normal">RAID 0</div></div></div></foreignObject><text x="295" y="179" font-family="Helvetica" font-size="12" text-anchor="middle">RAID 0</text></switch><path d="M390.06 50v20h-200v20M390.06 50v20h200v20" fill="none" stroke="#000" stroke-width="2" stroke-miterlimit="10" pointer-events="stroke"/><path fill="none" pointer-events="all" d="M330 10h120v40H330z"/><switch transform="matrix(2 0 0 2 -.5 -.5)"><foreignObject pointer-events="none" width="100%" height="100%" requiredFeatures="http://www.w3.org/TR/SVG11/feature#Extensibility" style="overflow:visible;text-align:left"><div xmlns="http://www.w3.org/1999/xhtml" style="display:flex;align-items:unsafe center;justify-content:unsafe center;width:58px;height:1px;padding-top:15px;margin-left:166px"><div data-drawio-colors="color: rgb(0, 0, 0);" style="box-sizing:border-box;font-size:0;text-align:center"><div style="display:inline-block;font-size:12px;font-family:Helvetica;color:#000;line-height:1.2;pointer-events:all;white-space:normal;overflow-wrap:normal">RAID 1</div></div></div></foreignObject><text x="195" y="19" font-family="Helvetica" font-size="12" text-anchor="middle">RAID 1</text></switch><path d="M190.06 330v-20h-120L70 270M190.06 330v-20h120l-.06-40M590.06 330v-20h-120l-.06-40" fill="none" stroke="#000" stroke-width="2" stroke-miterlimit="10" pointer-events="stroke"/><switch><a transform="translate(0 -5)" xlink:href="https://www.drawio.com/doc/faq/svg-export-text-problems" target="_blank"><text text-anchor="middle" font-size="10" x="50%" y="100%">Text is not SVG - cannot display</text></a></switch></svg>

<?xml version="1.0" encoding="UTF-8"?>
<!DOCTYPE svg PUBLIC "-//W3C//DTD SVG 1.1//EN" "http://www.w3.org/Graphics/SVG/1.1/DTD/svg11.dtd">
<svg xmlns="http://www.w3.org/2000/svg" xmlns:xlink="http://www.w3.org/1999/xlink" version="1.1" width="782px" height="380px" viewBox="-0.5 -0.5 782 380" style="background-color: rgb(255, 255, 255);"><defs/><g><rect x="10" y="90" width="360" height="200" fill="rgb(255, 255, 255)" stroke="#b3b3b3" stroke-width="2" stroke-dasharray="6 6" pointer-events="all"/><path d="M 30 140 C 30 123.43 47.91 110 70 110 C 80.61 110 90.78 113.16 98.28 118.79 C 105.79 124.41 110 132.04 110 140 L 110 240 C 110 256.57 92.09 270 70 270 C 47.91 270 30 256.57 30 240 Z" fill="#ff3333" stroke="rgb(0, 0, 0)" stroke-width="2" stroke-miterlimit="10" pointer-events="all"/><path d="M 110 140 C 110 156.57 92.09 170 70 170 C 47.91 170 30 156.57 30 140" fill="none" stroke="rgb(0, 0, 0)" stroke-width="2" stroke-miterlimit="10" pointer-events="all"/><path d="M 150 140 C 150 123.43 167.91 110 190 110 C 200.61 110 210.78 113.16 218.28 118.79 C 225.79 124.41 230 132.04 230 140 L 230 240 C 230 256.57 212.09 270 190 270 C 167.91 270 150 256.57 150 240 Z" fill="#cccccc" stroke="rgb(0, 0, 0)" stroke-width="2" stroke-miterlimit="10" pointer-events="all"/><path d="M 230 140 C 230 156.57 212.09 170 190 170 C 167.91 170 150 156.57 150 140" fill="none" stroke="rgb(0, 0, 0)" stroke-width="2" stroke-miterlimit="10" pointer-events="all"/><path d="M 270 140 C 270 123.43 287.91 110 310 110 C 320.61 110 330.78 113.16 338.28 118.79 C 345.79 124.41 350 132.04 350 140 L 350 240 C 350 256.57 332.09 270 310 270 C 287.91 270 270 256.57 270 240 Z" fill="#cccccc" stroke="rgb(0, 0, 0)" stroke-width="2" stroke-miterlimit="10" pointer-events="all"/><path d="M 350 140 C 350 156.57 332.09 170 310 170 C 287.91 170 270 156.57 270 140" fill="none" stroke="rgb(0, 0, 0)" stroke-width="2" stroke-miterlimit="10" pointer-events="all"/><rect x="410" y="90" width="360" height="200" fill="rgb(255, 255, 255)" stroke="#b3b3b3" stroke-width="2" stroke-dasharray="6 6" pointer-events="all"/><path d="M 430 140 C 430 123.43 447.91 110 470 110 C 480.61 110 490.78 113.16 498.28 118.79 C 505.79 124.41 510 132.04 510 140 L 510 240 C 510 256.57 492.09 270 470 270 C 447.91 270 430 256.57 430 240 Z" fill="#99ff33" stroke="rgb(0, 0, 0)" stroke-width="2" stroke-miterlimit="10" pointer-events="all"/><path d="M 510 140 C 510 156.57 492.09 170 470 170 C 447.91 170 430 156.57 430 140" fill="none" stroke="rgb(0, 0, 0)" stroke-width="2" stroke-miterlimit="10" pointer-events="all"/><path d="M 550 140 C 550 123.43 567.91 110 590 110 C 600.61 110 610.78 113.16 618.28 118.79 C 625.79 124.41 630 132.04 630 140 L 630 240 C 630 256.57 612.09 270 590 270 C 567.91 270 550 256.57 550 240 Z" fill="#99ff33" stroke="rgb(0, 0, 0)" stroke-width="2" stroke-miterlimit="10" pointer-events="all"/><path d="M 630 140 C 630 156.57 612.09 170 590 170 C 567.91 170 550 156.57 550 140" fill="none" stroke="rgb(0, 0, 0)" stroke-width="2" stroke-miterlimit="10" pointer-events="all"/><path d="M 670 140 C 670 123.43 687.91 110 710 110 C 720.61 110 730.78 113.16 738.28 118.79 C 745.79 124.41 750 132.04 750 140 L 750 240 C 750 256.57 732.09 270 710 270 C 687.91 270 670 256.57 670 240 Z" fill="#99ff33" stroke="rgb(0, 0, 0)" stroke-width="2" stroke-miterlimit="10" pointer-events="all"/><path d="M 750 140 C 750 156.57 732.09 170 710 170 C 687.91 170 670 156.57 670 140" fill="none" stroke="rgb(0, 0, 0)" stroke-width="2" stroke-miterlimit="10" pointer-events="all"/><path d="M 190.06 330 L 190.06 290 L 190.06 310 L 190.06 270" fill="none" stroke="rgb(0, 0, 0)" stroke-width="2" stroke-miterlimit="10" pointer-events="stroke"/><rect x="130" y="330" width="120" height="40" fill="none" stroke="none" pointer-events="all"/><g transform="translate(-0.5 -0.5)scale(2)"><switch><foreignObject pointer-events="none" width="100%" height="100%" requiredFeatures="http://www.w3.org/TR/SVG11/feature#Extensibility" style="overflow: visible; text-align: left;"><div xmlns="http://www.w3.org/1999/xhtml" style="display: flex; align-items: unsafe center; justify-content: unsafe center; width: 58px; height: 1px; padding-top: 175px; margin-left: 66px;"><div data-drawio-colors="color: rgb(0, 0, 0); " style="box-sizing: border-box; font-size: 0px; text-align: center;"><div style="display: inline-block; font-size: 12px; font-family: Helvetica; color: rgb(0, 0, 0); line-height: 1.2; pointer-events: all; white-space: normal; overflow-wrap: normal;">RAID 0</div></div></div></foreignObject><text x="95" y="179" fill="rgb(0, 0, 0)" font-family="Helvetica" font-size="12px" text-anchor="middle">RAID 0</text></switch></g><path d="M 590.06 330 L 590.06 290 L 590.06 310 L 590.06 270" fill="none" stroke="rgb(0, 0, 0)" stroke-width="2" stroke-miterlimit="10" pointer-events="stroke"/><path d="M 590.06 330 L 590.06 310 L 710.06 310 L 710.06 270" fill="none" stroke="rgb(0, 0, 0)" stroke-width="2" stroke-miterlimit="10" pointer-events="stroke"/><rect x="530" y="330" width="120" height="40" fill="none" stroke="none" pointer-events="all"/><g transform="translate(-0.5 -0.5)scale(2)"><switch><foreignObject pointer-events="none" width="100%" height="100%" requiredFeatures="http://www.w3.org/TR/SVG11/feature#Extensibility" style="overflow: visible; text-align: left;"><div xmlns="http://www.w3.org/1999/xhtml" style="display: flex; align-items: unsafe center; justify-content: unsafe center; width: 58px; height: 1px; padding-top: 175px; margin-left: 266px;"><div data-drawio-colors="color: rgb(0, 0, 0); " style="box-sizing: border-box; font-size: 0px; text-align: center;"><div style="display: inline-block; font-size: 12px; font-family: Helvetica; color: rgb(0, 0, 0); line-height: 1.2; pointer-events: all; white-space: normal; overflow-wrap: normal;">RAID 0</div></div></div></foreignObject><text x="295" y="179" fill="rgb(0, 0, 0)" font-family="Helvetica" font-size="12px" text-anchor="middle">RAID 0</text></switch></g><path d="M 390.06 50 L 390.06 70 L 190.06 70 L 190.06 90" fill="none" stroke="rgb(0, 0, 0)" stroke-width="2" stroke-miterlimit="10" pointer-events="stroke"/><path d="M 390.06 50 L 390.06 70 L 590.06 70 L 590.06 90" fill="none" stroke="rgb(0, 0, 0)" stroke-width="2" stroke-miterlimit="10" pointer-events="stroke"/><rect x="330" y="10" width="120" height="40" fill="none" stroke="none" pointer-events="all"/><g transform="translate(-0.5 -0.5)scale(2)"><switch><foreignObject pointer-events="none" width="100%" height="100%" requiredFeatures="http://www.w3.org/TR/SVG11/feature#Extensibility" style="overflow: visible; text-align: left;"><div xmlns="http://www.w3.org/1999/xhtml" style="display: flex; align-items: unsafe center; justify-content: unsafe center; width: 58px; height: 1px; padding-top: 15px; margin-left: 166px;"><div data-drawio-colors="color: rgb(0, 0, 0); " style="box-sizing: border-box; font-size: 0px; text-align: center;"><div style="display: inline-block; font-size: 12px; font-family: Helvetica; color: rgb(0, 0, 0); line-height: 1.2; pointer-events: all; white-space: normal; overflow-wrap: normal;">RAID 1</div></div></div></foreignObject><text x="195" y="19" fill="rgb(0, 0, 0)" font-family="Helvetica" font-size="12px" text-anchor="middle">RAID 1</text></switch></g><path d="M 190.06 330 L 190.06 310 L 70.06 310 L 70 270" fill="none" stroke="rgb(0, 0, 0)" stroke-width="2" stroke-miterlimit="10" pointer-events="stroke"/><path d="M 190.06 330 L 190.06 310 L 310.06 310 L 310 270" fill="none" stroke="rgb(0, 0, 0)" stroke-width="2" stroke-miterlimit="10" pointer-events="stroke"/><path d="M 590.06 330 L 590.06 310 L 470.06 310 L 470 270" fill="none" stroke="rgb(0, 0, 0)" stroke-width="2" stroke-miterlimit="10" pointer-events="stroke"/></g><switch><g requiredFeatures="http://www.w3.org/TR/SVG11/feature#Extensibility"/><a transform="translate(0,-5)" xlink:href="https://www.drawio.com/doc/faq/svg-export-text-problems" target="_blank"><text text-anchor="middle" font-size="10px" x="50%" y="100%">Text is not SVG - cannot display</text></a></switch></svg>
